X: 88
U:~=!turn!
M:C
L:1/8
K:G
g | fdgd BGGB | cAag fdef | {/a}gfgd BGGB | cAdB G2 G :| c | BGdG BGGB | cAeA cAAc |


